symbols/web/nfc/materialsymbolssharp/nfc_wght100fill1_20px.svg

<svg xmlns="http://www.w3.org/2000/svg" height="20" width="20"><path d="M6.688 13.312h6.624V6.688h-2.979q-.291 0-.479.187-.187.187-.187.479v2q-.105.063-.25.229-.146.167-.146.417 0 .333.187.531.188.198.542.198.292 0 .51-.198.219-.198.219-.531 0-.25-.135-.417-.136-.166-.261-.229v-2h2.313v5.292H7.354V7.354h.917v-.666H6.688Zm-3.105 3.105V3.583h12.834v12.834Z"/></svg>

<svg xmlns="http://www.w3.org/2000/svg" height="20" width="20"><path d="M6.688 13.312H13.312V6.688H10.333Q10.042 6.688 9.854 6.875Q9.667 7.062 9.667 7.354V9.354Q9.562 9.417 9.417 9.583Q9.271 9.75 9.271 10Q9.271 10.333 9.458 10.531Q9.646 10.729 10 10.729Q10.292 10.729 10.51 10.531Q10.729 10.333 10.729 10Q10.729 9.75 10.594 9.583Q10.458 9.417 10.333 9.354V7.354H12.646V12.646H7.354V7.354H8.271V6.688H6.688ZM3.583 16.417V3.583H16.417V16.417Z"/></svg>
